webapp/src/assets/icons/cloudproviders/aws/architecture_services/sqs.svg

<?xml version="1.0" encoding="UTF-8"?>
<svg width="40px" height="40px" viewBox="0 0 40 40" version="1.1" xmlns="http://www.w3.org/2000/svg" xmlns:xlink="http://www.w3.org/1999/xlink">
    <title>Icon-Architecture/32/Arch_Amazon-Simple-Queue-Service_32</title>
    <g id="Icon-Architecture/32/Arch_Amazon-Simple-Queue-Service_32" stroke="none" stroke-width="1" fill="none" fill-rule="evenodd">
        <path d="M14.3422051,22.3493786 L15.8466767,20.9061074 C15.9428347,20.8141539 15.9969235,20.687218 15.9999285,20.5552846 C16.0019317,20.4223517 15.9518495,20.2934168 15.8596981,20.1984648 L14.3552264,18.6432502 L13.6350433,19.3378994 L14.311154,20.037546 L11.9913429,20.037546 L11.9913429,21.0370413 L14.2650783,21.0370413 L13.6480647,21.6287425 L14.3422051,22.3493786 Z M26.3579452,22.3533765 L27.9074909,20.9001104 C28.0066538,20.8081569 28.0627459,20.679222 28.0647492,20.5442901 C28.0667525,20.4093583 28.0136653,20.2784244 27.918509,20.1834724 L26.3689633,18.6372532 L25.6607999,19.3438963 L26.3549403,20.037546 L24.0110896,20.037546 L24.0110896,21.0370413 L26.2988481,21.0370413 L25.671818,21.6247445 L26.3579452,22.3533765 Z M17.5875367,23.3608678 C18.3387708,23.0570212 19.1621235,22.8941035 20.0045074,22.8941035 C20.8468913,22.8941035 21.670244,23.0570212 22.4214781,23.3608678 C21.7523789,21.5897622 21.7523789,19.3898731 22.4214781,17.6187675 C20.9190098,18.2264606 19.090005,18.2264606 17.5875367,17.6187675 C18.2566359,19.3898731 18.2566359,21.5897622 17.5875367,23.3608678 L17.5875367,23.3608678 Z M15.6443443,25.3408679 C15.546183,25.2439168 15.4971024,25.1159814 15.4971024,24.988046 C15.4971024,24.8601106 15.546183,24.7321753 15.6443443,24.6342247 C17.5845317,22.6982024 17.5845317,18.2824324 15.6443443,16.3454106 C15.546183,16.2484595 15.4971024,16.1205241 15.4971024,15.9925912 C15.4971024,15.8646534 15.546183,15.736718 15.6443443,15.6387674 C15.8396652,15.4438659 16.1571868,15.4438659 16.3525077,15.6387674 C17.2740216,16.5583031 18.6052086,17.0860366 20.0045074,17.0860366 C21.4048079,17.0860366 22.7359948,16.5583031 23.6575088,15.6387674 C23.8528296,15.4438659 24.1703513,15.4438659 24.3656722,15.6387674 C24.4628318,15.736718 24.5119124,15.8646534 24.5119124,15.9925912 C24.5119124,16.1205241 24.4628318,16.2484595 24.3656722,16.3454106 C22.4244831,18.2824324 22.4244831,22.6982024 24.3656722,24.6342247 C24.4628318,24.7321753 24.5119124,24.8601106 24.5119124,24.988046 C24.5119124,25.1159814 24.4628318,25.2439168 24.3656722,25.3408679 C24.2675109,25.4388184 24.1393003,25.4877937 24.0110896,25.4877937 C23.882879,25.4877937 23.7546684,25.4388184 23.6575088,25.3408679 C22.7359948,24.4213322 21.4048079,23.8935987 20.0045074,23.8935987 C18.6052086,23.8935987 17.2740216,24.4213322 16.3525077,25.3408679 C16.1571868,25.5357694 15.8396652,25.5357694 15.6443443,25.3408679 L15.6443443,25.3408679 Z M32.5421049,19.4358499 C32.236603,19.1320033 31.8369464,18.9800801 31.4362882,18.9800801 C31.0366316,18.9800801 30.636975,19.1320033 30.3314731,19.4358499 C29.721471,20.0445425 29.721471,21.0340428 30.3314731,21.6417359 C30.9414753,22.2504285 31.9321027,22.2504285 32.5421049,21.6417359 C33.1511054,21.0340428 33.1511054,20.0445425 32.5421049,19.4358499 L32.5421049,19.4358499 Z M33.2502683,22.3493786 C32.7504472,22.8481267 32.0933677,23.0980005 31.4362882,23.0980005 C30.7802103,23.0980005 30.1231309,22.8481267 29.6233097,22.3493786 C28.6236675,21.3508828 28.6236675,19.7277025 29.6233097,18.7292068 C30.622952,17.7317105 32.250626,17.7317105 33.2502683,18.7292068 C34.2499106,19.7277025 34.2499106,21.3508828 33.2502683,22.3493786 L33.2502683,22.3493786 Z M9.66852687,19.4468443 C9.36302497,19.1429978 8.96336839,18.9910745 8.56271017,18.9910745 C8.16305359,18.9910745 7.76339701,19.1429978 7.45789511,19.4468443 C6.84889461,20.055537 6.84889461,21.0450373 7.45789511,21.6527304 C8.06789726,22.261423 9.05852472,22.261423 9.66852687,21.6527304 C10.2775274,21.0450373 10.2775274,20.055537 9.66852687,19.4468443 L9.66852687,19.4468443 Z M10.3766903,22.3593735 C9.87686914,22.8581217 9.21978965,23.1079955 8.56271017,23.1079955 C7.90663232,23.1079955 7.24955284,22.8581217 6.7497317,22.3593735 C5.75008943,21.3618773 5.75008943,19.738697 6.7497317,18.7402012 C7.74937397,17.7427049 9.37704801,17.7427049 10.3766903,18.7402012 C11.3763325,19.738697 11.3763325,21.3618773 10.3766903,22.3593735 L10.3766903,22.3593735 Z M27.4337125,28.9100654 C25.4364313,30.903059 22.7820705,32.0005047 19.9574301,32.0005047 C17.1327896,32.0005047 14.4784288,30.903059 12.4821492,28.9100654 C11.165987,27.5977281 10.4077413,26.469298 9.94498104,25.1359713 L8.99842599,25.4628063 C9.50726193,26.9290658 10.3626672,28.2104187 11.7739858,29.6167086 C13.9585748,31.7986067 16.8663519,33 19.9574301,33 C23.0495099,33 25.9562853,31.7986067 28.1418759,29.6167086 C29.2827502,28.4782835 30.4206196,27.1869356 31.0115905,25.4608073 L30.0640338,25.1379703 C29.5391715,26.6701966 28.4894469,27.8565974 27.4337125,28.9100654 L27.4337125,28.9100654 Z M9.94498104,15.8596559 L8.99842599,15.5318214 C9.51026687,14.0645624 10.3656722,12.7832095 11.7759891,11.3759202 C16.2863991,6.87519304 23.6264578,6.87419354 28.1378694,11.3759202 C29.2186449,12.4533761 30.4035916,13.7897012 31.0115905,15.5318214 L30.0640338,15.8596559 C29.5241468,14.3094387 28.4293482,13.0800596 27.4297059,12.0825633 C25.434428,10.0915688 22.7810689,8.99612197 19.9574301,8.99612197 C17.1337912,8.99612197 14.4804321,10.0915688 12.4851542,12.0825633 C11.1870215,13.3779092 10.4037347,14.5423211 9.94498104,15.8596559 L9.94498104,15.8596559 Z" id="AWS-Simple-Queue-Service_Icon_32_Squid" fill="#E7157B"></path>
    </g>
</svg>

<svg width="40" height="40" xmlns="http://www.w3.org/2000/svg"><path d="m14.342 22.35 1.505-1.444a.501.501 0 0 0 .013-.708l-1.505-1.555-.72.695.676.7h-2.32v.999h2.274l-.617.592.694.72Zm12.016.003 1.55-1.453a.5.5 0 0 0 .011-.717l-1.55-1.546-.708.707.694.694H24.01v.999h2.29l-.627.588.686.728Zm-8.77 1.008a6.458 6.458 0 0 1 2.417-.467c.842 0 1.665.163 2.416.467-.669-1.771-.669-3.971 0-5.742-1.502.607-3.331.607-4.833 0 .669 1.77.669 3.97 0 5.742Zm-1.944 1.98a.494.494 0 0 1 0-.707c1.94-1.936 1.94-6.352 0-8.289a.494.494 0 0 1 0-.706.502.502 0 0 1 .709 0c.921.92 2.252 1.447 3.652 1.447 1.4 0 2.731-.528 3.653-1.447a.502.502 0 0 1 .854.354.5.5 0 0 1-.146.352c-1.942 1.937-1.942 6.353 0 8.29a.501.501 0 0 1-.708.706c-.922-.92-2.253-1.447-3.653-1.447s-2.731.527-3.652 1.447a.502.502 0 0 1-.709 0Zm16.898-5.905a1.562 1.562 0 0 0-1.106-.456 1.558 1.558 0 0 0-1.105 2.662c.61.608 1.601.608 2.211 0a1.56 1.56 0 0 0 0-2.206Zm.708 2.913a2.56 2.56 0 0 1-1.814.749 2.56 2.56 0 0 1-1.813-4.369c1-.997 2.628-.997 3.627 0 1 .999 1 2.622 0 3.62ZM9.67 19.447a1.562 1.562 0 0 0-1.106-.456 1.56 1.56 0 0 0-1.105 2.662 1.56 1.56 0 1 0 2.21-2.206Zm.708 2.912a2.56 2.56 0 0 1-1.814.749A2.559 2.559 0 0 1 6.75 18.74c1-.997 2.627-.997 3.627 0 1 .999 1 2.622 0 3.62Zm17.057 6.551A10.514 10.514 0 0 1 19.957 32a10.51 10.51 0 0 1-7.475-3.09c-1.316-1.312-2.074-2.44-2.537-3.774l-.947.327c.51 1.466 1.365 2.747 2.776 4.154A11.506 11.506 0 0 0 19.957 33c3.093 0 6-1.201 8.185-3.383 1.14-1.139 2.279-2.43 2.87-4.156l-.948-.323c-.525 1.532-1.575 2.719-2.63 3.772ZM9.945 15.86l-.947-.328c.512-1.467 1.368-2.749 2.778-4.156 4.51-4.5 11.85-4.502 16.362 0 1.08 1.077 2.266 2.414 2.874 4.156l-.948.328c-.54-1.55-1.635-2.78-2.634-3.777a10.508 10.508 0 0 0-7.473-3.087 10.508 10.508 0 0 0-7.472 3.087c-1.298 1.295-2.081 2.46-2.54 3.777Z" fill="#E7157B" fill-rule="evenodd"/></svg>
